images/farms/blk-bnb.svg

<svg width="186" height="171" viewBox="0 0 186 171" fill="none" xmlns="http://www.w3.org/2000/svg">
<path d="M67.045 119.028C63.8667 131.172 82.0449 146.449 107.647 153.149C133.25 159.849 156.581 155.436 159.759 143.291C162.937 131.146 144.759 115.87 119.157 109.169C93.5546 102.469 70.2233 106.883 67.045 119.028Z" fill="#606063"/>
<path d="M155.924 149.273L171.346 132.988L61.9922 104.369L67.7128 126.187L155.924 149.273Z" fill="#606063"/>
<path d="M68.9337 108.293L27.0725 97.338C25.258 96.8632 23.4126 97.9924 23.0096 99.8242L22.5414 101.953C21.6084 106.194 24.1195 110.433 28.2875 111.653L70.0994 123.892L68.9337 108.293Z" fill="#606063"/>
<path d="M62.2026 98.7096C58.5089 112.824 80.5267 130.811 111.381 138.886C142.235 146.96 170.241 142.064 173.935 127.95C177.629 113.836 155.611 95.8488 124.757 87.7742C93.9028 79.6996 65.8963 84.5955 62.2026 98.7096Z" fill="url(#paint0_linear)"/>
<path fill-rule="evenodd" clip-rule="evenodd" d="M146.673 123.286C153.771 128.506 157.919 134.152 158.538 139.157L161.516 138.789C160.744 132.551 155.779 126.258 148.45 120.869C141.061 115.434 131.011 110.721 119.537 107.718C108.063 104.716 96.9927 103.901 87.888 105.019C78.8593 106.128 71.4479 109.182 67.7196 114.242L70.1348 116.021C73.1263 111.961 79.5082 109.071 88.2536 107.997C96.9231 106.933 107.608 107.698 118.777 110.621C129.946 113.544 139.636 118.111 146.673 123.286Z" fill="#606063"/>
<path fill-rule="evenodd" clip-rule="evenodd" d="M75.7343 118.739C67.0136 111.615 63.7365 104.698 65.1049 99.4692C66.4733 94.2403 72.7186 89.8155 83.8112 87.8763C94.6178 85.9872 108.889 86.7226 123.997 90.6764C139.105 94.6302 151.908 100.98 160.403 107.921C169.124 115.045 172.401 121.962 171.033 127.191C169.664 132.42 163.419 136.844 152.326 138.784C141.52 140.673 127.248 139.937 112.14 135.984C97.0323 132.03 84.2301 125.68 75.7343 118.739ZM111.381 138.886C80.5267 130.811 58.5089 112.824 62.2026 98.7096C65.8963 84.5955 93.9028 79.6996 124.757 87.7742C155.611 95.8488 177.629 113.836 173.935 127.95C170.241 142.064 142.235 146.96 111.381 138.886Z" fill="#979797"/>
<path fill-rule="evenodd" clip-rule="evenodd" d="M64.1673 124.049L59.2305 104.926L62.1352 104.176L67.0721 123.299L64.1673 124.049Z" fill="url(#paint1_linear)"/>
<path fill-rule="evenodd" clip-rule="evenodd" d="M62.4691 106.189C62.4241 106.041 62.3812 105.893 62.3406 105.746C62.2656 105.473 62.1983 105.2 62.1386 104.929L61.997 104.389C61.9948 104.38 62.0025 104.372 62.0109 104.375C62.019 104.377 62.0266 104.37 62.0251 104.362C62.0236 104.353 62.0222 104.345 62.0207 104.337C61.9732 104.072 61.9333 103.807 61.9009 103.543C61.8931 103.479 61.8857 103.416 61.8788 103.352C61.8065 102.689 61.7824 102.031 61.8078 101.378C61.8079 101.378 61.8079 101.378 61.8079 101.377C61.8432 100.475 61.9734 99.5849 62.2025 98.7095C65.8962 84.5954 93.9027 79.6994 124.757 87.774C155.611 95.8486 177.629 113.836 173.935 127.95C173.706 128.826 173.383 129.666 172.972 130.469C172.972 130.469 172.972 130.47 172.972 130.47C172.528 131.338 171.981 132.163 171.337 132.945C171.332 132.951 171.326 132.958 171.321 132.964C171.319 132.967 171.318 132.969 171.318 132.972C171.318 132.977 171.322 132.982 171.327 132.983C171.332 132.984 171.335 132.989 171.336 132.993C171.336 132.996 171.335 133 171.333 133.002L170.725 133.644C170.655 133.72 170.584 133.795 170.511 133.87L169.275 135.175L169.273 135.177L157.793 147.299C150.986 156.33 130.197 159.051 107.647 153.149C85.3446 147.312 68.6757 134.967 66.8505 123.854C66.7571 123.285 66.3667 122.8 65.8135 122.639L29.1271 111.91C24.9834 110.698 22.4722 106.499 23.3648 102.275L23.8239 100.103C24.2137 98.2581 26.0655 97.1133 27.8898 97.589L62.1386 106.52C62.3391 106.573 62.5217 106.39 62.4691 106.189ZM58.8119 102.553C58.7482 101.009 58.9029 99.4681 59.3002 97.9499C61.6255 89.0648 71.2303 83.9845 82.7779 81.9658C94.6114 79.8971 109.77 80.751 125.516 84.8718C141.262 88.9926 154.896 95.6738 164.199 103.274C173.277 110.691 179.162 119.825 176.837 128.71C176.28 130.839 175.285 132.774 173.936 134.499C173.821 134.697 173.679 134.887 173.511 135.065L172.923 135.686C172.92 135.689 172.916 135.693 172.913 135.697C172.836 135.779 172.759 135.861 172.68 135.943C172.677 135.946 172.673 135.95 172.67 135.953L160.082 149.246C155.911 154.652 148.056 157.706 138.984 158.802C129.684 159.926 118.467 159.082 106.888 156.051C95.4351 153.054 85.3397 148.366 77.8095 142.91C70.73 137.78 65.4882 131.648 64.0667 125.253L28.285 114.789C22.6362 113.137 19.2128 107.413 20.4296 101.655L20.8887 99.4823C21.6325 95.9628 25.166 93.7783 28.6468 94.6861L58.8119 102.553Z" fill="url(#paint2_linear)"/>
<circle cx="76" cy="29" r="29" fill="#F0B90B"/>
<path d="M65.1846 28.9998L60.7476 33.4676L56.2798 28.9998L60.7476 24.532L65.1846 28.9998ZM75.9998 18.1846L83.6413 25.8261L88.1091 21.3583L80.4676 13.7476L75.9998 9.27979L71.532 13.7476L63.9213 21.3583L68.3891 25.8261L75.9998 18.1846ZM91.252 24.532L86.815 28.9998L91.2828 33.4676L95.7198 28.9998L91.252 24.532ZM75.9998 39.815L68.3583 32.1735L63.9213 36.6413L71.5628 44.2828L75.9998 48.7198L80.4676 44.252L88.1091 36.6105L83.6413 32.1735L75.9998 39.815ZM75.9998 33.4676L80.4676 28.9998L75.9998 24.532L71.532 28.9998L75.9998 33.4676Z" fill="#FFFDFA"/>
<g style="mix-blend-mode:multiply" opacity="0.1">
<path fill-rule="evenodd" clip-rule="evenodd" d="M76 55C90.3594 55 102 43.3594 102 29C102 14.6406 90.3594 3 76 3C61.6406 3 50 14.6406 50 29C50 43.3594 61.6406 55 76 55ZM76 58C92.0163 58 105 45.0163 105 29C105 12.9837 92.0163 0 76 0C59.9837 0 47 12.9837 47 29C47 45.0163 59.9837 58 76 58Z" fill="#191326"/>
</g>
<circle cx="125.5" cy="72.5" r="43.5" fill="#0F1837"/>
<g clip-path="url(#clip0)">
<path d="M117.08 77.8042L112.255 77.7489V65.3064C112.255 64.9847 112.192 64.6662 112.068 64.369C111.945 64.0719 111.765 63.8019 111.537 63.5745C111.31 63.3471 111.04 63.1668 110.743 63.0439C110.445 62.9209 110.127 62.8577 109.805 62.8579C109.483 62.8579 109.165 62.9213 108.867 63.0445C108.57 63.1678 108.3 63.3484 108.072 63.576C107.845 63.8037 107.664 64.0739 107.541 64.3713C107.418 64.6688 107.355 64.9875 107.355 65.3094V79.8461C107.355 79.9014 107.355 79.9567 107.355 80.0105C107.355 80.0643 107.355 80.0987 107.355 80.145C107.352 80.4668 107.411 80.7861 107.531 81.0847C107.651 81.3833 107.829 81.6553 108.054 81.8853C108.279 82.1153 108.547 82.2988 108.843 82.4251C109.139 82.5515 109.456 82.6184 109.778 82.6219L117.025 82.7041H117.058C117.708 82.7077 118.332 82.453 118.794 81.996C119.256 81.5391 119.518 80.9174 119.521 80.2676C119.525 79.6178 119.27 78.9933 118.813 78.5313C118.356 78.0693 117.734 77.8078 117.085 77.8042H117.08Z" fill="#C9A31E"/>
<path d="M146.553 58.5398C146.396 58.5394 146.242 58.4998 146.104 58.4247C145.986 58.3619 143.215 56.8522 142.002 56.1392C141.801 56.0157 141.636 55.8409 141.524 55.6326C141.413 55.4243 141.358 55.19 141.367 54.9538C141.367 54.5353 141.545 53.9927 142.017 53.7266C143.811 52.7161 146.085 51.4844 146.107 51.4844C146.216 51.4256 146.336 51.3887 146.459 51.376C146.582 51.3634 146.707 51.3751 146.826 51.4106C146.944 51.446 147.055 51.5045 147.151 51.5827C147.247 51.6609 147.327 51.7573 147.386 51.8664C147.445 51.9754 147.482 52.095 147.494 52.2183C147.507 52.3415 147.495 52.4661 147.46 52.5849C147.424 52.7036 147.366 52.8142 147.288 52.9103C147.209 53.0065 147.113 53.0863 147.004 53.1451C146.985 53.1556 145.31 54.0585 143.708 54.9493C145.053 55.7087 146.983 56.7625 147.007 56.7745C147.191 56.8747 147.336 57.0332 147.42 57.225C147.504 57.4169 147.521 57.6311 147.47 57.8341C147.418 58.037 147.301 58.2171 147.136 58.3459C146.971 58.4748 146.768 58.5451 146.558 58.5458L146.553 58.5398Z" fill="white"/>
<path d="M134.304 93.6341C132.365 93.6373 130.433 93.4074 128.549 92.9495C123.484 91.7088 120.539 89.2289 120.416 89.1243C120.133 88.8831 119.958 88.5393 119.928 88.1685C119.898 87.7978 120.017 87.4305 120.259 87.1475C120.5 86.8644 120.844 86.6888 121.214 86.6592C121.585 86.6296 121.952 86.7485 122.235 86.9898C122.669 87.3545 132.768 95.6102 148.019 86.8403C148.179 86.7443 148.356 86.6812 148.54 86.6545C148.725 86.6279 148.913 86.6383 149.093 86.6851C149.274 86.732 149.443 86.8143 149.591 86.9273C149.739 87.0403 149.863 87.1817 149.956 87.3433C150.049 87.5049 150.109 87.6833 150.132 87.8683C150.155 88.0532 150.141 88.2409 150.091 88.4204C150.041 88.5998 149.955 88.7675 149.839 88.9135C149.724 89.0595 149.58 89.181 149.417 89.2708C143.63 92.6012 138.475 93.6341 134.304 93.6341Z" fill="white"/>
<path d="M124.724 82.6847C124.045 82.6843 123.393 82.4141 122.912 81.9335C122.431 81.4529 122.16 80.8011 122.159 80.1211V65.4215C122.159 64.7415 122.429 64.0893 122.91 63.6083C123.391 63.1273 124.043 62.8568 124.723 62.8564C125.403 62.8564 126.055 63.1265 126.536 63.6073C127.016 64.088 127.287 64.7401 127.287 65.42V80.1196C127.287 80.4563 127.221 80.7897 127.092 81.1008C126.963 81.4119 126.775 81.6946 126.537 81.9328C126.299 82.171 126.016 82.36 125.705 82.489C125.394 82.618 125.061 82.6845 124.724 82.6847Z" fill="#C9A41E"/>
<path d="M145.127 82.77C144.446 82.77 143.794 82.4997 143.313 82.0187C142.832 81.5376 142.561 80.8852 142.561 80.2049V71.8446C142.524 71.0419 142.329 70.2545 141.986 69.5277C141.402 68.3573 140.491 67.8356 139.01 67.8356H139.002C137.657 67.8356 136.85 68.3588 136.312 69.583C136.016 70.2958 135.846 71.0544 135.808 71.8252V80.196C135.816 80.5379 135.756 80.8781 135.631 81.1964C135.506 81.5147 135.318 81.8048 135.079 82.0496C134.84 82.2944 134.555 82.4889 134.24 82.6217C133.924 82.7545 133.586 82.8229 133.244 82.8229C132.902 82.8229 132.563 82.7545 132.248 82.6217C131.933 82.4889 131.647 82.2944 131.408 82.0496C131.169 81.8048 130.982 81.5147 130.857 81.1964C130.731 80.8781 130.671 80.5379 130.679 80.196V71.8252C130.679 68.1615 132.895 62.707 138.996 62.707H139.007C141.407 62.707 143.478 63.5082 144.995 65.0224C147.612 67.6383 147.686 71.4081 147.686 71.8297V80.2004C147.686 80.5372 147.621 80.8708 147.493 81.1823C147.364 81.4937 147.176 81.7768 146.938 82.0154C146.701 82.254 146.418 82.4435 146.108 82.573C145.797 82.7024 145.463 82.7694 145.127 82.77Z" fill="#C9A41E"/>
<path d="M156.452 72.9835L160.753 66.7518C160.952 66.4732 161.094 66.1577 161.17 65.8238C161.246 65.4899 161.255 65.1441 161.196 64.8067C161.137 64.4694 161.011 64.1471 160.827 63.8588C160.642 63.5704 160.401 63.3217 160.119 63.1272C159.838 62.9328 159.52 62.7963 159.185 62.726C158.849 62.6556 158.504 62.6526 158.167 62.7173C157.831 62.782 157.511 62.913 157.226 63.1026C156.94 63.2923 156.696 63.5368 156.506 63.822L151.174 71.5485C151.174 71.5485 151.174 71.5605 151.164 71.5665C151.087 71.6832 151.02 71.8056 150.962 71.9327C150.947 71.9656 150.928 71.9984 150.914 72.0328C150.873 72.1397 150.839 72.249 150.811 72.3602C150.798 72.4155 150.778 72.4708 150.768 72.5261C150.753 72.6171 150.743 72.709 150.738 72.8011C150.738 72.8774 150.721 72.9506 150.721 73.0298C150.721 73.1091 150.733 73.1793 150.741 73.2511C150.747 73.3448 150.758 73.4381 150.775 73.5306C150.787 73.5859 150.807 73.6382 150.822 73.692C150.85 73.8047 150.886 73.9151 150.931 74.0224C150.944 74.0553 150.962 74.0852 150.979 74.1165C151.038 74.2449 151.108 74.3679 151.188 74.4843C151.188 74.4843 151.188 74.4962 151.198 74.5022L156.272 81.6129C156.68 82.139 157.275 82.487 157.934 82.584C158.593 82.681 159.264 82.5196 159.806 82.1335C160.349 81.7474 160.721 81.1665 160.845 80.5123C160.969 79.8581 160.835 79.1812 160.472 78.6233L156.452 72.9835Z" fill="white"/>
<path d="M124.572 58.1198C126.338 58.1198 127.769 56.6883 127.769 54.9224C127.769 53.1566 126.338 51.7251 124.572 51.7251C122.806 51.7251 121.375 53.1566 121.375 54.9224C121.375 56.6883 122.806 58.1198 124.572 58.1198Z" fill="white"/>
<path d="M100.723 71.7712C100.723 71.7712 103.464 71.5261 103.368 67.4214C103.265 62.9983 98.0664 62.813 98.0664 62.813H92.3249C91.6669 62.8205 91.0383 63.087 90.5755 63.5549C90.1126 64.0227 89.8529 64.6542 89.8525 65.3123V80.4095C89.8529 81.0723 90.1164 81.7077 90.585 82.1763C91.0536 82.645 91.6891 82.9084 92.3518 82.9088C92.3518 82.9088 95.2502 82.8864 96.6553 82.9088C102.437 82.994 104.895 80.7997 104.981 77.112C105.09 72.1853 100.723 71.7712 100.723 71.7712ZM94.7166 66.689C94.7166 66.689 96.3219 66.6665 96.8092 66.689C97.2965 66.7114 98.9841 66.8758 98.9139 68.8056C98.8436 70.7353 96.6717 70.6426 96.6717 70.6426H94.7166V66.689ZM96.6702 79.0074H94.7166V74.5425C94.7166 74.5425 96.3219 74.5186 96.8092 74.5425C97.2965 74.5664 100.06 74.3333 100.126 76.7727C100.193 79.1524 96.6702 79.0149 96.6702 79.0149V79.0074Z" fill="#C9A31E"/>
</g>
<g style="mix-blend-mode:multiply" opacity="0.2">
<path fill-rule="evenodd" clip-rule="evenodd" d="M125.5 113.163C147.958 113.163 166.163 94.9576 166.163 72.5C166.163 50.0424 147.958 31.837 125.5 31.837C103.042 31.837 84.837 50.0424 84.837 72.5C84.837 94.9576 103.042 113.163 125.5 113.163ZM125.5 116C149.524 116 169 96.5244 169 72.5C169 48.4756 149.524 29 125.5 29C101.476 29 82 48.4756 82 72.5C82 96.5244 101.476 116 125.5 116Z" fill="#191326"/>
</g>
<defs>
<linearGradient id="paint0_linear" x1="124.757" y1="87.7742" x2="111.381" y2="138.886" gradientUnits="userSpaceOnUse">
<stop stop-color="#404042"/>
<stop offset="1" stop-color="#48484B"/>
</linearGradient>
<linearGradient id="paint1_linear" x1="65.5673" y1="105.096" x2="60.7353" y2="123.129" gradientUnits="userSpaceOnUse">
<stop stop-color="#404042"/>
<stop offset="1" stop-color="#48484B"/>
</linearGradient>
<linearGradient id="paint2_linear" x1="92.4948" y1="80.1687" x2="108.09" y2="164.62" gradientUnits="userSpaceOnUse">
<stop stop-color="#404042"/>
<stop offset="1" stop-color="#48484B"/>
</linearGradient>
<clipPath id="clip0">
<rect width="71.3638" height="42.2679" fill="white" transform="translate(89.8452 51.3662)"/>
</clipPath>
</defs>
</svg>

<svg xmlns="http://www.w3.org/2000/svg" xmlns:v="https://vecta.io/nano" width="186" height="171" fill="none"><g fill="#606063"><path d="M67.045 119.028c-3.178 12.144 15 27.421 40.602 34.121s48.934 2.287 52.112-9.858-15-27.421-40.602-34.122-48.934-2.286-52.112 9.859z"/><path d="M155.924 149.273l15.422-16.285-109.354-28.619 5.721 21.818 88.211 23.086z"/><path d="M68.934 108.293L27.073 97.338c-1.815-.475-3.66.654-4.063 2.486l-.468 2.129a8.26 8.26 0 0 0 5.746 9.7l41.812 12.239-1.166-15.599z"/></g><path fill="url(#A)" d="M62.203 98.71c-3.694 14.114 18.324 32.101 49.178 40.176s58.86 3.178 62.554-10.936-18.324-32.101-49.178-40.176-58.861-3.179-62.554 10.935z"/><g fill-rule="evenodd"><path fill="#606063" d="M146.673 123.286c7.098 5.22 11.246 10.866 11.865 15.871l2.978-.368c-.772-6.238-5.737-12.531-13.066-17.92-7.389-5.435-17.439-10.148-28.913-13.151s-22.544-3.817-31.649-2.699c-9.029 1.109-16.44 4.163-20.168 9.223l2.415 1.779c2.992-4.06 9.373-6.95 18.119-8.024 8.67-1.064 19.354-.299 30.523 2.624s20.859 7.49 27.896 12.665z"/><path fill="#979797" d="M75.734 118.739c-8.721-7.124-11.998-14.041-10.629-19.27s7.614-9.654 18.706-11.593c10.807-1.889 25.078-1.154 40.186 2.8s27.911 10.304 36.406 17.245c8.721 7.124 11.998 14.041 10.63 19.27s-7.614 9.653-18.707 11.593c-10.806 1.889-25.078 1.153-40.186-2.8s-27.91-10.304-36.406-17.245zm35.647 20.147c-30.854-8.075-52.872-26.062-49.178-40.176s31.7-19.01 62.554-10.935 52.872 26.062 49.178 40.176-31.7 19.01-62.554 10.936z"/><path fill="url(#B)" d="M64.167 124.049l-4.937-19.123 2.905-.75 4.937 19.123-2.905.75z"/><path fill="url(#C)" d="M62.469 106.189l-.128-.443-.202-.817-.142-.54c.022-.012.03-.019.028-.027l-.004-.025-.12-.794-.022-.191c-.072-.663-.096-1.321-.071-1.974.035-.903.166-1.793.395-2.668 3.694-14.114 31.7-19.01 62.555-10.936s52.872 26.062 49.178 40.176a12.4 12.4 0 0 1-.963 2.519 13.7 13.7 0 0 1-1.635 2.476l-.016.019c.011.02.014.025.015.029l-.611.651-12.932 13.655c-6.807 9.031-27.596 11.752-50.146 5.85-22.302-5.837-38.971-18.182-40.797-29.295-.093-.569-.484-1.054-1.037-1.215L29.127 111.91a8.26 8.26 0 0 1-5.762-9.635l.459-2.172c.39-1.845 2.242-2.99 4.066-2.514l34.249 8.931a.27.27 0 0 0 .331-.331zm-3.657-3.636c-.064-1.544.091-3.085.488-4.603 2.325-8.885 11.93-13.965 23.478-15.984 11.834-2.069 26.992-1.215 42.738 2.906s29.38 10.802 38.683 18.402c9.078 7.417 14.963 16.551 12.638 25.436-.557 2.129-1.552 4.064-2.901 5.789a3.08 3.08 0 0 1-.425.566l-13.429 14.181c-4.171 5.406-12.026 8.46-21.098 9.556-9.3 1.124-20.517.28-32.096-2.751-11.453-2.997-21.548-7.685-29.079-13.141-7.079-5.13-12.321-11.262-13.743-17.657l-35.782-10.464a11.26 11.26 0 0 1-7.855-13.134l.459-2.173c.744-3.519 4.277-5.704 7.758-4.796l30.165 7.867z"/></g><circle cx="76" cy="29" r="29" fill="#f0b90b"/><path fill="#fffdfa" d="M65.185 29l-4.437 4.468L56.28 29l4.468-4.468L65.185 29zM76 18.185l7.642 7.642 4.468-4.468-7.641-7.611L76 9.28 63.921 21.358l4.468 4.468L76 18.185zm15.252 6.347L86.815 29l4.468 4.468L95.72 29l-4.468-4.468zM76 39.815l-7.641-7.642-4.437 4.468L76 48.72l12.109-12.109-4.468-4.437L76 39.815zm0-6.347L80.468 29 76 24.532 71.532 29 76 33.468z"/><path fill="#191326" fill-rule="evenodd" d="M76 55c14.359 0 26-11.641 26-26S90.359 3 76 3 50 14.641 50 29s11.641 26 26 26zm0 3c16.016 0 29-12.984 29-29S92.016 0 76 0 47 12.984 47 29s12.984 29 29 29z" opacity=".1" style="mix-blend-mode:multiply"/><circle cx="125.5" cy="72.5" r="43.5" fill="#0f1837"/><g clip-path="url(#D)"><path fill="#c9a31e" d="M117.08 77.804l-4.825-.055V65.306c0-.322-.063-.64-.187-.937a2.44 2.44 0 0 0-1.325-1.325 2.45 2.45 0 0 0-.938-.186c-.322 0-.64.063-.938.187a2.46 2.46 0 0 0-1.326 1.327c-.123.297-.186.616-.186.938v14.836c-.003.322.056.641.176.94s.298.571.523.801a2.45 2.45 0 0 0 .789.54c.296.126.613.193.935.197l7.28.082a2.45 2.45 0 0 0 1.736-.708c.462-.457.724-1.079.727-1.728a2.45 2.45 0 0 0-2.436-2.463h-.005z"/><g fill="#fff"><path d="M146.553 58.54a.94.94 0 0 1-.449-.115l-4.102-2.285a1.34 1.34 0 0 1-.478-.507c-.111-.208-.166-.443-.157-.679 0-.419.178-.961.65-1.227l4.09-2.242a.95.95 0 0 1 .719-.074.94.94 0 0 1 .325.172c.096.078.176.175.235.284a.93.93 0 0 1 .108.352.95.95 0 0 1-.034.367c-.035.119-.094.229-.172.325s-.175.176-.284.235l-3.296 1.804 3.299 1.825c.184.1.329.259.413.45s.101.406.05.609a.94.94 0 0 1-.334.512c-.165.129-.368.199-.578.2l-.005-.006zm-12.249 35.094a24.2 24.2 0 0 1-5.755-.685c-5.065-1.241-8.01-3.721-8.133-3.825-.283-.241-.458-.585-.488-.956s.089-.738.331-1.021a1.4 1.4 0 0 1 1.976-.158c.434.365 10.533 8.62 25.784-.15a1.41 1.41 0 0 1 .521-.186c.184-.027.373-.016.553.031a1.4 1.4 0 0 1 .863.658 1.4 1.4 0 0 1 .176.525 1.41 1.41 0 0 1-.041.552 1.4 1.4 0 0 1-.252.493c-.116.146-.259.267-.422.357-5.787 3.33-10.942 4.363-15.113 4.363z"/></g><g fill="#c9a41e"><path d="M124.724 82.685c-.679 0-1.331-.271-1.812-.751a2.57 2.57 0 0 1-.753-1.812v-14.7c0-.68.27-1.332.751-1.813a2.57 2.57 0 0 1 1.813-.752 2.56 2.56 0 0 1 1.813.751c.481.481.751 1.133.751 1.813v14.7a2.56 2.56 0 0 1-.195.981c-.129.311-.317.594-.555.832a2.57 2.57 0 0 1-.832.556 2.58 2.58 0 0 1-.981.196zm20.403.085c-.681 0-1.333-.27-1.814-.751s-.752-1.133-.752-1.814v-8.36c-.037-.803-.232-1.59-.575-2.317-.584-1.17-1.495-1.692-2.976-1.692h-.008c-1.345 0-2.152.523-2.69 1.747-.296.713-.466 1.471-.504 2.242v8.371a2.57 2.57 0 0 1-.177 1c-.125.318-.313.608-.552.853s-.524.439-.839.572a2.57 2.57 0 0 1-.996.201 2.56 2.56 0 0 1-.996-.201 2.57 2.57 0 0 1-.84-.572 2.56 2.56 0 0 1-.551-.853c-.126-.318-.186-.659-.178-1v-8.371c0-3.664 2.216-9.118 8.317-9.118h.011c2.4 0 4.471.801 5.988 2.315 2.617 2.616 2.691 6.386 2.691 6.807V80.2c0 .337-.065.67-.193.982s-.317.594-.555.833-.52.428-.83.558a2.57 2.57 0 0 1-.981.197z"/></g><g fill="#fff"><path d="M156.452 72.984l4.301-6.232c.199-.279.341-.594.417-.928a2.58 2.58 0 0 0 .026-1.017c-.059-.337-.185-.66-.369-.948s-.426-.537-.708-.732a2.57 2.57 0 0 0-.934-.401 2.58 2.58 0 0 0-2.679 1.096l-5.332 7.727s0 .012-.01.018a2.72 2.72 0 0 0-.202.366l-.048.1a2.87 2.87 0 0 0-.103.327l-.043.166a2.54 2.54 0 0 0-.03.275c0 .076-.017.149-.017.229s.012.15.02.221a2.39 2.39 0 0 0 .034.28c.012.055.032.108.047.161.028.113.064.223.109.33.013.033.031.063.048.094a2.47 2.47 0 0 0 .209.368s0 .012.01.018l5.074 7.111a2.58 2.58 0 0 0 4.573-1.1c.124-.654-.01-1.331-.373-1.889l-4.02-5.64zm-31.88-14.864a3.2 3.2 0 0 0 3.197-3.197 3.2 3.2 0 0 0-3.197-3.197 3.2 3.2 0 0 0-3.197 3.197 3.2 3.2 0 0 0 3.197 3.197z"/></g><path fill="#c9a31e" d="M100.723 71.771s2.741-.245 2.645-4.35c-.103-4.423-5.302-4.608-5.302-4.608h-5.742a2.5 2.5 0 0 0-2.472 2.499V80.41a2.5 2.5 0 0 0 2.499 2.499h4.304c5.782.085 8.24-2.109 8.326-5.797.109-4.927-4.258-5.341-4.258-5.341zm-6.006-5.082h2.093c.487.022 2.175.187 2.105 2.117s-2.242 1.837-2.242 1.837h-1.955v-3.954zm1.954 12.318h-1.954v-4.465s1.605-.024 2.093 0 3.251-.209 3.317 2.23c.067 2.38-3.456 2.242-3.456 2.242v-.007z"/></g><path fill="#191326" fill-rule="evenodd" d="M125.5 113.163c22.458 0 40.663-18.205 40.663-40.663S147.958 31.837 125.5 31.837 84.837 50.042 84.837 72.5s18.205 40.663 40.663 40.663zm0 2.837c24.024 0 43.5-19.476 43.5-43.5S149.524 29 125.5 29 82 48.476 82 72.5s19.476 43.5 43.5 43.5z" opacity=".2" style="mix-blend-mode:multiply"/><defs><linearGradient id="A" x1="124.757" x2="111.381" y1="87.774" y2="138.886" gradientUnits="userSpaceOnUse"><stop stop-color="#404042"/><stop offset="1" stop-color="#48484b"/></linearGradient><linearGradient id="B" x1="65.567" x2="60.735" y1="105.096" y2="123.129" gradientUnits="userSpaceOnUse"><stop stop-color="#404042"/><stop offset="1" stop-color="#48484b"/></linearGradient><linearGradient id="C" x1="92.495" x2="108.09" y1="80.169" y2="164.62" gradientUnits="userSpaceOnUse"><stop stop-color="#404042"/><stop offset="1" stop-color="#48484b"/></linearGradient><clipPath id="D"><path fill="#fff" d="M0 0h71.364v42.268H0z" transform="translate(89.845 51.366)"/></clipPath></defs></svg>
